X:1
T: Tivoli
C:
R:Jig
Q:180
K:D
M:6/8
L:1/16
|:cd|e2e2e2 e2e2e2|e2f2e2 c2B2A2|d2d2d2 f2e2d2|c2A2c2 e4cd|
e2e2e2 e2e2e2|e2f2e2 c2B2A2|d2d2d2 f2g2a2|g2e2c2 d4:|
|:fg|a2g2a2 g2e2g2|f2e2d2 c2B2A2|d2d2d2 f2e2d2|c2A2c2 e4fg|
a2a2f2 g2g2e2|f2f2d2 c2B2A2|d2d2d2 f2g2a2|g2e2c2 d4:|
